svgs/sharp-solid/sidebar-flip.svg

<svg xmlns="http://www.w3.org/2000/svg" viewBox="0 0 512 512"><!--! Font Awesome Pro 6.6.0 by @fontawesome - https://fontawesome.com License - https://fontawesome.com/license (Commercial License) Copyright 2024 Fonticons, Inc. --><path d="M512 32L0 32 0 480l512 0 0-448zM288 96l0 320L64 416 64 96l224 0zm64 0l96 0 0 48-96 0 0-48zm96 96l0 48-96 0 0-48 96 0zm-96 96l96 0 0 48-96 0 0-48z"/></svg>

<svg xmlns="http://www.w3.org/2000/svg" viewBox="0 0 512 512"><!--! Font Awesome Pro 6.4.2 by @fontawesome - https://fontawesome.com License - https://fontawesome.com/license (Commercial License) Copyright 2023 Fonticons, Inc. --><path d="M512 32H0V480H512V32zM288 96V416H64V96H288zm64 0h96v48H352V96zm96 96v48H352V192h96zm-96 96h96v48H352V288z"/></svg>
